resources/scalable/audio-headphones.svg

<svg xmlns="http://www.w3.org/2000/svg" width="16" height="16">
    <g fill="#ffd700">
        <path fill="#ffffff" d="M7.969 1C4.663 1 1.945 4.008 2 6.719c.048 2.365.809 4.695 1 5.281h1.526c-1.162-2.292-1.05-5.156-1.05-5.156 0-2.373 2.007-4.313 4.493-4.313 2.485 0 4.5 1.827 4.492 4.282-.024 1.674-.172 2.658-1.006 5.187h1.571c.225-.645.974-3.19.974-5.281C14 3.889 11.274 1 7.969 1z"/>
        <path d="M3.988 9.106c.948-.277 1.953.294 2.253 1.282l.675 2.226c.3.988-.224 2.006-1.172 2.283-.949.278-1.954-.294-2.253-1.282l-.675-2.226c-.3-.987.223-2.006 1.172-2.283z"/>
        <path d="M12.012 9.139c-.948-.278-1.953.294-2.253 1.282l-.675 2.226c-.3.987.224 2.006 1.172 2.283.949.277 1.954-.294 2.253-1.282l.675-2.226c.3-.988-.223-2.006-1.172-2.283z"/>
    </g>
</svg>

<?xml version="1.0" encoding="UTF-8" standalone="no"?>
<svg
   xmlns:dc="http://purl.org/dc/elements/1.1/"
   xmlns:cc="http://creativecommons.org/ns#"
   xmlns:rdf="http://www.w3.org/1999/02/22-rdf-syntax-ns#"
   xmlns:svg="http://www.w3.org/2000/svg"
   xmlns="http://www.w3.org/2000/svg"
   xmlns:sodipodi="http://sodipodi.sourceforge.net/DTD/sodipodi-0.dtd"
   xmlns:inkscape="http://www.inkscape.org/namespaces/inkscape"
   width="16"
   height="16"
   version="1.1"
   id="svg10"
   sodipodi:docname="audio-headphones.svg"
   inkscape:version="0.92.4 (5da689c313, 2019-01-14)">
  <metadata
     id="metadata16">
    <rdf:RDF>
      <cc:Work
         rdf:about="">
        <dc:format>image/svg+xml</dc:format>
        <dc:type
           rdf:resource="http://purl.org/dc/dcmitype/StillImage" />
        <dc:title></dc:title>
      </cc:Work>
    </rdf:RDF>
  </metadata>
  <defs
     id="defs14" />
  <sodipodi:namedview
     pagecolor="#818181"
     bordercolor="#666666"
     borderopacity="1"
     objecttolerance="10"
     gridtolerance="10"
     guidetolerance="10"
     inkscape:pageopacity="0"
     inkscape:pageshadow="2"
     inkscape:window-width="1388"
     inkscape:window-height="867"
     id="namedview12"
     showgrid="false"
     inkscape:zoom="14.75"
     inkscape:cx="6.8063564"
     inkscape:cy="-1.206386"
     inkscape:window-x="44"
     inkscape:window-y="0"
     inkscape:window-maximized="1"
     inkscape:current-layer="svg10" />
  <g
     id="g829"
     style="stroke:#777777;stroke-opacity:1;stroke-width:0.4;stroke-miterlimit:4;stroke-dasharray:none">
    <path
       d="M 7.969,1 C 4.663,1 1.945,4.008 2,6.719 2.048,9.084 2.809,11.414 3,12 H 4.526 C 3.364,9.708 3.476,6.844 3.476,6.844 c 0,-2.373 2.007,-4.313 4.493,-4.313 2.485,0 4.5,1.827 4.492,4.282 C 12.437,8.487 12.289,9.471 11.455,12 h 1.571 C 13.251,11.355 14,8.81 14,6.719 14,3.889 11.274,1 7.969,1 Z"
       id="path2"
       inkscape:connector-curvature="0"
       style="fill:#dddddd;fill-opacity:1;stroke:#777777;stroke-opacity:1;stroke-width:0.4;stroke-miterlimit:4;stroke-dasharray:none" />
    <path
       d="M 3.988,9.106 C 4.936,8.829 5.941,9.4 6.241,10.388 l 0.675,2.226 C 7.216,13.602 6.692,14.62 5.744,14.897 4.795,15.175 3.79,14.603 3.491,13.615 L 2.816,11.389 C 2.516,10.402 3.039,9.383 3.988,9.106 Z"
       id="path4"
       inkscape:connector-curvature="0"
       style="fill:#ffd700;stroke:#777777;stroke-opacity:1;stroke-width:0.4;stroke-miterlimit:4;stroke-dasharray:none" />
    <path
       d="M 12.012,9.139 C 11.064,8.861 10.059,9.433 9.759,10.421 l -0.675,2.226 c -0.3,0.987 0.224,2.006 1.172,2.283 0.949,0.277 1.954,-0.294 2.253,-1.282 l 0.675,-2.226 c 0.3,-0.988 -0.223,-2.006 -1.172,-2.283 z"
       id="path6"
       inkscape:connector-curvature="0"
       style="fill:#ffd700;stroke:#777777;stroke-opacity:1;stroke-width:0.4;stroke-miterlimit:4;stroke-dasharray:none" />
  </g>
</svg>
